X: 6
T: Piano Sonata no. 2 in A major, Largo appassionato
C: Ludwig van Beethoven
%%abc-version 2.0
%%abcx-abcm2ps-target-version 5.9.1 (29 Sep 2008)
%%abc-creator hum2abc beta
%%abcx-conversion-date 2021/01/11 11:42:15
%%abc-edited-by Craig Stuart Sapp
%%abc-edited-by Craig Stuart Sapp
%%abcx-initial-encoding-date 2005/05/28/
%%gracespace 0 6 6
%%humdrum-veritas 2684556616
%%humdrum-veritas-data 538370853
%%linebreak <none>
%%barnumbers 0
L: 1/8
M: 3/4
Q: "Largo appassionato" 1/4=52
%%staves {1 2}
V: 1 clef=treble
V: 2 clef=bass
K: D
[V:1] [A,2F2][A,2F2][A,2F2] | 
[V:2] D,2D,2D,2 & .D,,/z/.E,,/ z/ .F,,/z/.E,,/ z/ .F,,/z/.D,,/ z/ | 
[V:1] [A,2E2][A,4F4] | 
[V:2] C,2D,4 & .G,,/z/.A,,/ z/ .F,,/z/.E,,/ z/ .F,,/z/.D,,/ z/ | 
[V:1] [A,4G4][A,2F2] | 
[V:2] E,4.D,2 & .C,,/z/.A,,/ z/ .B,,/z/.C,/ z/ .D,/z/.^G,,/ z/ | 
[V:1] [A,E] zz2z2 | 
[V:2] C, A,,-A,,4 & A,, A,,^G,,=G,,F,,E,, | 
[V:1] [A,2F2][A,2F2][A,3/F3/]B/ | 
[V:2] D,2D,2D,3/G,/ & .D,,/z/.E,,/ z/ .F,,/z/.E,,/ z/ .F,,/z/.D,,/ z/ | 
[V:1] B4x2 & B,CDE[FA][CG] | 
[V:2] G,4F,G, & G,,A,,B,,C,D,E, | 
[V:1] [DF][B,E]D2!turn!C2 | 
[V:2] x2F,A,G,A, & [F,A,][G,,G,]A,,2[A,,2-E,2] | 
[V:1] [G,2A,2-E2][F,A,D] .E.F.^G | 
[V:2] A,,B,,/C,/ D, zz2 & D,,2>x2x2 | 
[V:1] A4!trill!^G2{/FG} | 
[V:2] z ECEDE & z2A,2B,2 | 
[V:1] AECE[B,D]E | 
[V:2] C xx4 & A,4{/F,^G,}!trill!G,2{/F,G,} | 
[V:1] A4!trill!^G2{/FG} & CEA,EB,E | 
[V:2] A,E,C,E,D,E, | 
[V:1] A2^G2=G2 & A,CDA,EA, | 
[V:2] C,A,,B,,2C,2 | 
[V:1] [A,2F2][A,2F2][A,2F2] | 
[V:2] D,2D,2D,2 & .D,,/z/.E,,/ z/ .F,,/z/.E,,/ z/ .F,,/z/.D,,/ z/ | 
[V:1] [A,2E2][A,4F4] | 
[V:2] C,2D,4 & .G,,/z/.A,,/ z/ .F,,/z/.E,,/ z/ .F,,/z/.D,,/ z/ | 
[V:1] [B,2F2][B,4G4] | 
[V:2] ^D,2E,4 & .A,,/z/.B,,/ z/ .G,,/z/.F,,/ z/ .G,,/z/.E,,/ z/ | 
[V:1] x2!sfz![B,4B4]- & [A,2D2F2A2]D2!sfz!G2- | 
[V:2] F,2G,3F, & .=C,/z/.D,/ z/ .B,,/z/.A,,/ z/ .G,,/z/.F,,/ z/ | 
[V:1] [B,2G2B2][CEGc][DGd] GA & E2x2[E2c2e2] | 
[V:2] [E,,E,][D,,D,][C,,C,][B,,,B,,][A,,,A,,][G,,,G,,] | 
[V:1] fed2!turn!c2 & [Ad][GB] FAEG | 
[V:2] [F,,,F,,][G,,,G,,][A,,,2A,,2][A,,,2A,,2-] | 
[V:1] [G2e2][Fd] FdB | 
[V:2] A,,B,,/C,/ D, xx2 & D,,2>z2 z [B,DF] | 
[V:1] ^AcB xx2 & F2x F/f/ e/d/c/B/ | 
[V:2] [C2E2][DF] z z [B,D] | 
[V:1] !turn!^Ac/B/ B F/f/ e/d/c/B/ | 
[V:2] [C2E2][DF] z z [D,F,] | 
[V:1] !turn!=A/^G/A/c/F2^E2 & x2z CB,C | 
[V:2] F,A, z A,^G,2 & C,2C,2C,2 | 
[V:1] [A,F] zz2z [Cc] | 
[V:2] F, C,D,C,A,F, & F,, zz2z A,, | 
[V:1] [C2c2]>z2 z [Cc] | 
[V:2] ^E,^G, F,/C,/A,/G,/ B,/A,/G,/F,/ & ^G,,B,,A,, z z A,, | 
[V:1] [C2c2]>z2z2 | 
[V:2] ^E,^G, F,/C,/A,/G,/ B,/A,/G,/F,/ & ^G,,B,,A,, z z A,, | 
[V:1] z D dBAG & z D .D.D.D.D | 
[V:2] [B,,F,][B,,=G,] .[B,,G,].[B,,G,].[B,,G,].[B,,G,] | 
[V:1] G>FF4 & .D.D.D.D.D.D | 
[V:2] .[=C,A,].[C,A,].[C,A,].[C,A,].[C,A,].[C,A,] | 
[V:1] G/A/B/=c/ d/^c/e/d/ d/=c//B// B/A//G// & DDDDDD | 
[V:2] [B,,D,G,][B,,D,G,][B,,D,G,][B,,D,G,][B,,D,G,][B,,D,G,] | 
[V:1] {/F/G/A/} G>FF3F & DD^DDDD | 
[V:2] [=C,A,][C,A,][C,A,][C,A,][B,,^D,A,][B,,D,A,] | 
[V:1] A>GG3G & ^DDEE[=DE][DE] | 
[V:2] [B,,^D,A,][B,,D,A,][B,,E,G,][B,,E,G,][_B,,=D,G,][B,,D,G,] | 
[V:1] [G,A,CEG]ECA,G,E, | 
[V:2] [A,,,4A,,4]-[A,,,A,,]B,,/C,/ | 
[V:1] [A,2F2][A,2F2][A,2F2] | 
[V:2] D,2D,2D,2 & .D,,/z/.E,,/ z/ .F,,/z/.E,,/ z/ .F,,/z/.D,,/ z/ | 
[V:1] [A,2E2][A,4F4] | 
[V:2] C,2D,4 & .G,,/z/.A,,/ z/ .F,,/z/.E,,/ z/ .F,,/z/.D,,/ z/ | 
[V:1] [A,4G4][A,2F2] | 
[V:2] E,4.D,2 & .C,,/z/.A,,/ z/ .B,,/z/.C,/ z/ .D,/z/.^G,,/ z/ | 
[V:1] [A,E] z z CDE | 
[V:2] C, A,,-A,,4 & A,, A,,^G,,=G,,F,,E,, | 
[V:1] [A,2F2][A,2F2][A,3/F3/]B/ | 
[V:2] D,2D,2D,3/G,/ & .D,,/z/.E,,/ z/ .F,,/z/.E,,/ z/ .F,,/z/.D,,/ z/ | 
[V:1] B4x2 & B,CDE[FA][CG] | 
[V:2] G,4F,G, & G,,A,,B,,C,D,E, | 
[V:1] [DF][B,E]D2!turn!C2 | 
[V:2] x2F,A,G,A, & [F,A,][G,,G,]A,,2[A,,2-E,2] | 
[V:1] [G,2A,2-E2][F,A,D] zz2 | 
[V:2] A,,B,,/C,/ D,.E,.F,.^G, & D,,2>z2z2 | 
[V:1] z ECE[B,D]E | 
[V:2] A,4{/F,^G,}!trill!^G,2{/F,G,} | 
[V:1] A4!trill!^G2{/FG} & CECEB,E | 
[V:2] A,2E,2D,2 | 
[V:1] [CA][G,E][A,C][G,E][B,D][G,E] | 
[V:2] C, xx4 & A,,4{/F,,^G,,}!trill!G,,2{/F,,G,,} | 
[V:1] CA2^G2=G & x A,DA,EA, | 
[V:2] A,,6 & A,,A,,,B,,,2C,,2 | 
[V:1] [A,2F2][A,2F2][A,2F2] | 
[V:2] D,2D,2D,2 & .D,,/z/.E,,/ z/ .F,,/z/.E,,/ z/ .F,,/z/.D,,/ z/ | 
[V:1] [A,2E2][A,4F4] | 
[V:2] C,2D,4 & .G,,/z/.A,,/ z/ .F,,/z/.E,,/ z/ .F,,/z/.D,,/ z/ | 
[V:1] [B,2F2][B,4G4] | 
[V:2] ^D,2E,4 & .A,,/z/.B,,/ z/ .G,,/z/.F,,/ z/ .G,,/z/.E,,/ z/ | 
[V:1] x2!sfz![B,4B4]- & [A,2D2F2A2]D2!sfz!G2- | 
[V:2] F,2G,3F, & .=C,/z/.D,/ z/ .B,,/z/.A,,/ z/ .G,,/z/.F,,/ z/ | 
[V:1] [B,2G2B2][CEGc][DGd] GA & E2x2[E2c2e2] | 
[V:2] [E,,E,][D,,D,][C,,C,][B,,,B,,][A,,,A,,][G,,,G,,] | 
[V:1] fed2!trill!c2{/Bc} & [Ad][GB] FAEG | 
[V:2] [F,,,F,,][G,,,G,,][A,,,2A,,2][A,,,2A,,2] | 
[V:1] d dcdBd & F2z2G2 | 
[V:2] [D,,2D,2]z2x2 | 
[V:1] A3B/A/ A/G/F/G/ & FDCDB,D | 
[V:2] z6 | 
[V:1] F2x4 | 
[V:2] A,2-A,/^A,/B,/=A,/ A,/G,/F,/G,/ & z D,C,D,B,,D, | 
[V:1] DG- GFEA & x B,CD-DC | 
[V:2] F,E,2F,!sfz!G,2 & A,,G,,A,,4 | 
[V:1] D/ d/c/d/ e/d/B/d/ A/d/^G/d/ | 
[V:2] [D,2F,2]z GF^E | 
[V:1] A2>=G2F^E | 
[V:2] F/D/C/D/ E/D/B,/D/ A,/D/^G,/D/ | 
[V:1] [A,2F2]z [G,DG][A,DF][B,DB] | 
[V:2] z/ D,/C,/D,/ E,/D,/.B,,/.D,/ .A,,/.D,/.G,,/.E,/ | 
[V:1] [A,DA][B,EG][D2F2][C2E2] | 
[V:2] .F,,/.F,/.G,,/.G,/ .A,,.A,.A,,.G, | 
[V:1] [=F,2A,2D2=F2][F,2A,2D2F2][F,2A,2D2F2] | 
[V:2] D,2D,2D,2 & .D,,/z/.E,,/ z/ .=F,,/z/E,,/ z/ .F,,/z/.D,,/ z/ | 
[V:1] [E,2A,2C2E2][=F,4A,4D4=F4] | 
[V:2] C,2D,4 & .G,,/z/.A,,/ z/ .=F,,/z/.E,,/ z/ F,,/z/.D,,/ z/ | 
[V:1] [=F,2A,2=C2_E2=F2][F,2A,2C2E2F2][F,2A,2C2E2F2] | 
[V:2] [_E,,_E,][D,,D,] [=C,,=C,][_B,,,_B,,] [A,,,A,,][=F,,,=F,,] | 
[V:1] [=F,4_B,4D4=F4][D2F2_B2d2] | 
[V:2] _B,,4[=F,,=F,][G,,/G,/][A,,/A,/] & [_B,,,_B,,][=C,,=C,][D,,D,][_E,,_E,]B,,2 | 
[V:1] [D4=F4_B4d4][d2=f2d'2] | 
[V:2] _B,4B,2 & [_B,,_B,][=C,=C][D,D][_E,_E] [=F,=F][G,/G/][A,/A/] | 
[V:1] [d4=f4d'4][d2f2] & _BABA^GG | 
[V:2] _B,A,B,A,^G,G, | 
[V:1] [^c2e2]z [e=g][ce][=Bd] & A^GA4 | 
[V:2] A,6 | 
[V:1] [A2c2]z [=gb][eg][d^f] | 
[V:2] z ^G,A,4 | 
[V:1] [c2e2]z [=gbe'][egc'][dfb] | 
[V:2] z2z2z A, & z ^G,,A,,4- | 
[V:1] [cea][Bdg][Acf][Be][Ad][Gce] | 
[V:2] A,A,A, [A,G][A,F][A,E] & A,,3x3 | 
[V:1] f2f2f2 & .A/A/^G/A/ .A/A/G/A/ .A/A/G/A/ | 
[V:2] D2D2D2 & .D,/z/.E,/ z/ .F,/z/.E,/ z/ .F,/z/.D,/ z/ | 
[V:1] e2f4 & .A/A/^G/A/ .A/A/G/A/ .A/A/G/A/ | 
[V:2] C2D4 & .G,/z/.A,/ z/ .F,/z/.E,/ z/ .F,/z/.D,/ z/ | 
[V:1] g4f2 & .A/A/^G/A/ .A/A/G/A/ .A/A/G/A/ | 
[V:2] E4F2 & .C,/z/.A,/ z/ .B,/z/.C/ z/ .D/z/.^G,/ z/ | 
[V:1] e zz2z2 & A/A/^G/A/ G/A/B/A/ A/=G/F/E/ | 
[V:2] [A,CE] zz2z2 | 
[V:1] A2A2^A2 & .D/D/C/D/ .D/D/C/D/ .D/D/C/D/ | 
[V:2] D,2D,2D,2 & F,,^E,,F,,E,,F,,D,, | 
[V:1] B4=AG & .D/D/C/D/ .D/D/E/E/ F/A,/C/A,/ | 
[V:2] D,2x2x2 & G,,A,,[B,,G,][C,G,][D,F,][E,G,] | 
[V:1] FED2C2 & D/A,/B,/G,/x2x2 | 
[V:2] x2F,/A,/.A,/.A,/ G,/A,/.A,/.A,/ & [F,,F,]G,,A,,2[A,,2E,2] | 
[V:1] x2x2G3/A/ & [F,2A,2D2]z2[C2E2] | 
[V:2] z D,C,B,,A,,2- & D,,6- | 
[V:1] x4E3/F/ & [A,2D2F2]z2[G,2C2] | 
[V:2] A,,6- & D,,D,,C,,B,,,A,,,2- | 
[V:1] [F,A,D] zz2G/B/A/G/ & x2x2[C2E2] | 
[V:2] [A,,,A,,] D,/C,/ E,/D,/.C,/.B,,/A,,2- | 
[V:1] [A,DF] zz2E/G/F/E/ & x2z2[G,2C2] | 
[V:2] A,,6 & A,,D,,/C,,/ E,,/D,,/.C,,/.B,,,/A,,,2- | 
[V:1] D4D2 & F,2>A,2 F,A,- | 
[V:2] A,,,B,,,/C,,/D,,2D,,2 | 
[V:1] !fermata![F,6A,6D6] |]  
[V:2] !fermata![D,,6A,,6D,6] |]  


